X: 38
T: Moccasin game song
N: Derived from ojibwa38.krn
C: Chippewa Songs ~ 1910
O: Red Wing, Minnesota, U.S.A
N: Chippewa Music by Frances Densmore, 1910
Z: transcribed to **kern format by Paul von Hippel and Daniel T. Shanahan
L: 1/8
M: 3/4
Q: 1/4=108
K: A clef=bass
%%linebreak <none>
C,> C (3C C G, G,/ G,3/ | 
C> G, (3G, F, C, C,/ C,3/ | 
F,> G, (3G, G, G, F,/ F,3/ | 
G,> A, (3G, F, C, (3C, C, A,, | 
C,> C, (3C, C, A,, A,,/ A,,3/ | 
D,> F, (3F, F, C, (3C, C, A,, | 
C,> C, (3C, C, C, C,/ C,3/ | 
C,6 |]  



